X: 42222
T: Way To Shercock, The
R: reel
M: 4/4
K: Ddorian
|:c|d2 ad fdAB|+=c2cE2+ Gc EcGc|D=cAG FGAF|G2 EC EFGB|
A2 FA FGAB|+=c2E2+ Bd cAGB|Addc defd|cAGE D3:|
|:c|defg afdB|cdef gedA|defg adfa|ge^ce d2 fg|
adfa gceg|fedc dcAG|FGAB cded|cAGE D3:|

